icons/glyphs/glyph-database.svg

<?xml version="1.0" encoding="UTF-8" standalone="no"?><svg height="16" viewBox="0 0 4.2333332 4.2333332" width="16" xmlns="http://www.w3.org/2000/svg"><sodipodi:namedview/><metadata><rdf:RDF><cc:Work><dc:format>image/svg+xml</dc:format><dc:type/><dc:title/></cc:Work></rdf:RDF></metadata><path d="m2.1089175-.00004a2.1088945.4343825 0 0 0 -2.10891765.43448238 2.1088945.4343825 0 0 0 2.10891765.43429718 2.1088945.4343825 0 0 0 2.1087306-.43429718 2.1088945.4343825 0 0 0 -2.1087306-.43448238zm-2.09339844.66413124v1.45253546c-.00026459.2399436.94400891.4344848 2.10891764.4344822 1.1649091.0000026 2.1091852-.1945386 2.1089175-.4344822v-1.45253546c-.0002297.23986977-.9443598.43429986-2.1089175.43429716-1.16455763.0000027-2.10868904-.19442739-2.10891764-.43429716zm-.0071041 1.68218416v1.4525328c-.00026458.2399438.94400891.4344876 2.10891764.434485 1.1649088.0000026 2.1091857-.1945412 2.108918-.434485v-1.4525328c-.000231.2398724-.9443606.4342999-2.108918.4342973-1.16455763.0000026-2.10868904-.1944249-2.10891764-.4342973z" fill="#d0d0d0" stroke-width=".239467"/></svg>

<?xml version="1.0" encoding="UTF-8" standalone="no"?>
<!-- Created with Inkscape (http://www.inkscape.org/) -->

<svg
   xmlns:dc="http://purl.org/dc/elements/1.1/"
   xmlns:cc="http://creativecommons.org/ns#"
   xmlns:rdf="http://www.w3.org/1999/02/22-rdf-syntax-ns#"
   xmlns:svg="http://www.w3.org/2000/svg"
   xmlns="http://www.w3.org/2000/svg"
   xmlns:sodipodi="http://sodipodi.sourceforge.net/DTD/sodipodi-0.dtd"
   xmlns:inkscape="http://www.inkscape.org/namespaces/inkscape"
   width="16"
   height="16"
   viewBox="0 0 4.2333332 4.2333332"
   version="1.1"
   id="svg8"
   inkscape:version="0.92+devel (7086fba083, 2017-08-05, custom)"
   sodipodi:docname="glyph-database.svg">
  <defs
     id="defs2" />
  <sodipodi:namedview
     id="base"
     pagecolor="#002466"
     bordercolor="#ffffff"
     borderopacity="0.38039216"
     inkscape:pageopacity="1"
     inkscape:pageshadow="2"
     inkscape:zoom="7.1685545"
     inkscape:cx="31.932258"
     inkscape:cy="43.937714"
     inkscape:document-units="px"
     inkscape:current-layer="svg8"
     inkscape:document-rotation="0"
     showgrid="false"
     inkscape:showpageshadow="false"
     borderlayer="true"
     inkscape:window-width="1920"
     inkscape:window-height="1051"
     inkscape:window-x="0"
     inkscape:window-y="0"
     inkscape:window-maximized="1"
     inkscape:object-paths="false"
     inkscape:snap-intersection-paths="true"
     inkscape:snap-smooth-nodes="true"
     units="px" />
  <metadata
     id="metadata5">
    <rdf:RDF>
      <cc:Work
         rdf:about="">
        <dc:format>image/svg+xml</dc:format>
        <dc:type
           rdf:resource="http://purl.org/dc/dcmitype/StillImage" />
        <dc:title></dc:title>
      </cc:Work>
    </rdf:RDF>
  </metadata>
  <path
     style="fill:#d0d0d0;stroke-width:0.23946701"
     d="M 2.1089175,-3.9999872e-5 A 2.1088945,0.4343825 0 0 0 -1.5495718e-7,0.43444238 2.1088945,0.4343825 0 0 0 2.1089175,0.86873956 2.1088945,0.4343825 0 0 0 4.2176481,0.43444238 2.1088945,0.4343825 0 0 0 2.1089175,-3.9999872e-5 Z M 0.01551906,0.66409124 V 2.1166267 C 0.01525447,2.3565703 0.95952797,2.5511115 2.1244367,2.5511089 3.2893458,2.5511115 4.2336219,2.3565703 4.2333542,2.1166267 V 0.66409124 C 4.2331245,0.90396101 3.2889944,1.0983911 2.1244367,1.0983884 0.95987907,1.0983911 0.01574766,0.90396101 0.01551906,0.66409124 Z M 0.00841496,2.3462754 v 1.4525328 c -2.6458e-4,0.2399438 0.94400891,0.4344876 2.10891764,0.434485 1.1649088,2.6e-6 2.1091857,-0.1945412 2.108918,-0.434485 V 2.3462754 C 4.2260196,2.5861478 3.28189,2.7805753 2.1173326,2.7805727 0.95277497,2.7805753 0.00864356,2.5861478 0.00841496,2.3462754 Z"
     id="path828"
     inkscape:connector-curvature="0"
     inkscape:label="#" />
</svg>
